X:1
T:The Well-Tempered Clavier Book I - XXI
T:BWV 866    (A = 415 Hz)
T:J. S. Bach
%%score { ( 1 3 ) | ( 2 4 ) }
L:1/8
Q:1/4=96
M:4/4
K:Bb
V:1 treble nm="Harp"
V:3 treble 
V:2 bass 
V:4 bass 
V:1
"^Andante""^Praeludium" z/4 F/4d/4F/4 z/4 F/4c/4F/4 z/4 F/4d/4F/4 z/4 A/4f/4A/4 z/4 D/4B/4D/4 z/4 D/4A/4D/4 z/4 D/4B/4D/4 z/4 F/4d/4F/4 | %1
 z/4 B,/4G/4B,/4 z/4 B,/4F/4B,/4 z/4 B,/4G/4B,/4 z/4 D/4B/4D/4 z/4 D/4E/4D/4 z/4 D/4G/4D/4 z/4 C/4F/4C/4 z/4 A,/4E/4A,/4 | %2
 z/4 D/4F/4D/4 z/4 B,/4D/4B,/4 z/4[I:staff +1] F,/4B,/4F,/4[I:staff -1] z/4[I:staff +1] D,/4F,/4D,/4 G,,/4D,/4=E,/4^F,/4 G,/4 A,/4B,/4C/4 B,/4 G,/4A,/4B,/4 C/4[I:staff -1] D/4=E/4F/4 | %3
 z/4 =E/4G/4E/4 z/4 C/4E/4C/4 z/4[I:staff +1] G,/4C/4G,/4[I:staff -1] z/4[I:staff +1] =E,/4G,/4E,/4 A,,/4E,/4F,/4G,/4 A,/4 =B,/4C/4D/4 C/4 A,/4B,/4C/4 D/4[I:staff -1] E/4F/4G/4 | %4
 z/4 F/4A/4F/4 z/4 D/4F/4D/4 z/4 A,/4D/4A,/4 z/4 F,/4A,/4F,/4 z/4 F,/4D/4F,/4 z/4 F,/4B,/4F,/4 z/4 F,/4C/4F,/4 z/4 F,/4E/4F,/4 | %5
 z/4 F,/4D/4F,/4 z/4 F,/4B,/4F,/4 z/4 F,/4C/4F,/4 z/4 F,/4E/4F,/4 z/4 F,/4D/4F,/4 z/4 G,/4F/4G,/4 z/4 G,/4=E/4G,/4 z/4 A,/4G/4A,/4 | %6
 z/4 A,/4F/4A,/4 z/4 B,/4A/4B,/4 z/4 B,/4G/4B,/4 z/4 C/4B/4C/4 z/4 C/4A/4C/4 z/4 D/4c/4D/4 z/4 D/4B/4D/4 z/4 =E/4d/4E/4 | %7
 z8 | %8
 z/4 C/4B/4C/4 z/4 C/4A/4C/4 z/4 B,/4A/4B,/4 z/4 B,/4G/4B,/4 z/4 A,/4G/4A,/4 z/4 A,/4F/4A,/4 z/4 G,/4F/4G,/4 z/4 G,/4=E/4G,/4 | %9
 A,/4C/4F/4C/4A,/4F/4C/4A,/4[I:staff +1] F,/4A,/4C/4A,/4F,/4C/4A,/4F,/4 C,/4 F,/4=E,/4D,/4 C,/4 B,,/4A,,/4G,,/4 F,,/4A,,/4C,/4F,/4A,/4[I:staff -1]C/4E/4_G/4 | %10
 z2 [Bdf]>[Bdf] [=Bdf-]2 f/4g/4_a/4g/4f/4e/4d/4e/4 | %11
 f/4e/4d/4c/4=B/4c/4d/4c/4 B/4A/4G/4A/4B/4A/4G/4F/4 E/4D/4C/4B,/4[I:staff +1]_A,/4G,/4F,/4E,/4 D,/4C,/4=B,,/4A,,/4G,,/4F,,/4E,,/4D,,/4 | %12
[I:staff -1] z2 [ce]>[Bce] [Ace]2 z2 | %13
[I:staff +1] A,/4G,/4F,/4G,/4A,/4B,/4C/4D/4 C/4B,/4A,/4B,/4C/4D/4E/4F/4[I:staff -1] E/4D/4C/4D/4E/4F/4G/4A/4 B/4c/4d/4e/4f/4g/4a/4f/4 | %14
 b z [Bd]>[Bd] [GBd]2 _d>c | %15
 [FA-]2 A/4c/4A/4F/4E/4F/4A/4c/4 A/4c/4A/4F/4E/4F/4A/4c/4 _g/4f/4e/4_d/4c/4B/4A/4G/4 | %16
 z2 z d !arpeggio![FBc]2 [FAc]2 | %17
 [D-F]2 D/4F/4D/4B,/4[I:staff +1] _A,/4[I:staff -1] B,/4D/4F/4 D/4F/4D/4B,/4[I:staff +1]A,/4B,/4[I:staff -1] D/4F/4 _c/4_A/4F/4D/4[I:staff +1]=B,/4A,/4F,/4[I:staff -1] D/4 | %18
 E/4D/4E/-E/4D/4C/4D/4 E/4D/4[I:staff +1]C/4B,/4A,/4B,/4C/4B,/4 A,/4G,/4F,/4G,/4A,/4G,/4F,/4E,/4 D,/4E,/4F,/4E,/4D,/4C,/4B,,/4A,,/4 | %19
[I:staff -1] z/4[I:staff +1] D,/4F,/4D,/4[I:staff -1] z/4[I:staff +1] F,/4B,/4F,/4[I:staff -1] z/4[I:staff +1] B,/4D/4B,/4[I:staff -1] z/4 D/4F/4D/4 z/4 F/4B/4F/4 z/4 B/4d/4B/4 z/4 d/4f/4d/4 !fermata!b | %20
 z8 |[M:3/4]"^Fuga" z F GF BD | CA/G/ B/A/G/F/ cE | DB/c/ A/B/c/d/ e/d/c/e/ | %24
 d/c/B/c/ A/B/c/d/ e/d/c/e/ | d>c B/A/B/c/ df- | fB AB =eg- | gA/B/ cc cc | c/B/A/B/ cc cc | %29
 c2 z2 z/ d/B/d/ | e z z2 z/ e/c/e/ | f z z A/B/ c/B/A/c/ | B2 z A/B/ c/B/A/c/ | BB dB fA | %34
 G=e/d/ f/e/d/c/ gB | Af/g/ =e/f/g/a/ b/a/g/b/ | a/g/f/g/ =e/f/g/a/ b/a/g/b/ | %37
 a/b/a/g/ _g/=g/a/b/ c'/b/a/c'/ | b/a/g/a/ _g/=g/a/b/ c'/b/a/c'/ | b/a/g/f/ e/f/g/a/ b/a/g/b/ | %40
 a/g/f/e/ d/e/f/g/ a/g/f/a/ | g/f/e/d/ c/d/e/f/ g/^f/=e/g/ | ^f/=e/d/c/ B/A/B/c/ dg- | gc Bc ^fa- | %44
 aB/c/ dd dd | d/c/B/c/ dd dd | d z z2 z/ e/c/e/ | f z z2 z/ f/d/f/ | g z z =B/c/ d/c/B/d/ | %49
 c z z =B/c/ d/c/B/d/ | ce de ca | bd cd Bg | ac Bc A^f | g/f/=e/d/ ^c/d/e/f/ g/f/e/g/ | %54
 f/e/d/c/ =B/c/d/e/ f/e/d/f/ | e/c/=B/A/ G/F/G/c/ e2- | e_A GA df- | fB cB eG | %58
 Fd/c/ e/d/c/B/ f_A | Ge/f/ d/e/f/g/ _a/g/f/a/ | g/f/e/f/ d/e/f/g/ _a/g/f/a/ | g>f e/d/e/f/ gb- | %62
 be de ac'- | c'd/e/ ff ff | f/e/d/e/ ff ff | f z z A/B/ c/B/A/c/ | B z z A/B/ c/B/A/c/ | %67
 Bg d2 c2 | !fermata!B6 |] %69
V:2
 B,A, B,F, G,F, G,D, | E,D, E,B,, C,B,, A,,F,, | B,F, D,B,, z4 | CG, =E,C, z4 | %4
 DA, F,D, B,,G,, A,,F,, | B,,G,, A,,F,, B,,=B,, C,^C, | D,D,, =E,,=E, F,F,, G,,G, | %7
 A,/4[I:staff -1]C/4D/4=E/4F/4G/4A/4B/4 c/4B/4A/4G/4F/4_E/4D/4C/4 D/4[I:staff +1]B,/4A,/4G,/4 F,/4 E,/4D,/4C,/4 B,,/4C,/4 D,/4C,/4 B,,/4 A,,/4G,,/4F,,/4 | %8
 =E,,F,, D,,E,, F,,A,, B,,C, | F,, z z2 z4 | D,, z [F,B,D]>[F,B,D] [D,G,]2 z2 | z8 | %12
 C,, z [E,G,C]>[E,G,C] [A,C]2 z2 | z8 | z2 B,>B, B,2 B,>C | E2 z2 z4 | %16
[I:staff -1] A/4 F/4A/4c/4 e/4 _g/4a/4c'/4 b/>c/_d/4A/4B/4=E/4[I:staff +1] !arpeggio!F,2 !arpeggio!F,G, | %17
 _A,2 z2 z4 | G, z z2 z4 | B,,D, F,B, DF[I:staff -1] B[I:staff +1] z | z8 |[M:3/4] z6 | z6 | z6 | %24
 z6 | z6 | z6 | z6 | z6 | z F, G,F, B,D, | C,A,/G,/ B,/A,/G,/F,/ CE, | %31
 D,B,/C/ A,/B,/C/D/ E/D/C/E/ | D/C/B,/C/ A,/B,/C/D/ E/D/C/E/ | DD,/C,/ B,,/A,,/B,,/C,/ D,F,- | %34
 F,B,, A,,B,, =E,G,- | G,A,,/B,,/ C,C, C,C, | C,/B,,/A,,/B,,/ C,C, C,C, | %37
 F,, z z ^F,/G,/ A,/G,/F,/A,/ | G, z z ^F,/G,/ A,/G,/F,/A,/ | G,D, C,D, G,,E, | F,C, B,,C, F,,D, | %41
 E,B,, A,,B,, E,,C, | D, z z2 z/ G,/E,/G,/ | C, z z2 z/ A,/^F,/A,/ | %44
 D, z z ^F,,/G,,/ A,,/G,,/F,,/A,,/ | G,, z z ^F,,/G,,/ A,,/G,,/F,,/A,,/ | G,,G, B,G, CE, | %47
 D,=B,/A,/ C/B,/A,/G,/ DF, | E,C/D/ =B,/C/D/E/ F/E/D/F/ | E/D/C/D/ =B,/C/D/E/ F/E/D/F/ | %50
 E/D/C/B,/ A,/B,/C/D/ E/D/C/E/ | D/C/B,/A,/ G,/A,/B,/C/ D/C/B,/D/ | %52
 C/B,/A,/G,/ ^F,/G,/A,/B,/ C/B,/A,/C/ | B,G, F,G, =E,2 | D,F, E,F, D,2 | C, z z2 z/ C,/E,/C,/ | %56
 F, z z2 z/ B,,/D,/B,,/ | E, z z2 z/ E,/G,/E,/ | B, z z2 z/ B,/D/B,/ | E z z D,/E,/ F,/E,/D,/F,/ | %60
 E, z z D,/E,/ F,/E,/D,/F,/ | E, z z2 z/ E,/G,/E,/ | F, z z2 z/ F,/A,/F,/ | %63
 B, z z A,/B,/ C/B,/A,/C/ | B, z z A,/B,/ C/B,/A,/C/ | B,/F,/D,/E,/ F,F, F,F, | %66
 F,/E,/D,/E,/ F,F, F,F, | F,/E,/D,/E,/ F,E, F,F,, | !fermata!B,,6 |] %69
V:3
 x8 | x8 | x8 | x8 | x8 | x8 | x8 | x8 | x8 | x8 | z2 A>A G2 z2 | x8 | z2 G>G F2 z2 | x8 | %14
 z2 [FA]>[FA] E2 [GB]>[GB] | c2 z2 z4 | z4 !arpeggio!CD _E2 | B2 z2 z4 | x8 | x8 | x8 |[M:3/4] x6 | %22
 x6 | x6 | x6 | z B, DB, FA, | G,=E/D/ F/E/D/C/ G[I:staff +1]B, | %27
[I:staff -1] A,F/G/ =E/F/G/A/ B/A/G/B/ | A/G/F/G/ =E/F/G/A/ B/A/G/B/ | A>G F/E/D/E/ FB- | %30
 BE DE Ac- | cD/E/ FF FF | F/E/D/E/ FF FF | F2 z2 z/[I:staff +1] A,/F,/A,/ | %34
 B,[I:staff -1] z z2[I:staff +1] B,/G,/B,/[I:staff -1] z/ | %35
 C z z[I:staff +1] =E,/F,/ G,/F,/E,/G,/ | F,[I:staff -1] z z[I:staff +1] =E,/G,/ G,/F,/E,/G,/ | %37
 F,/A,/B,/C/ DD DD | D/C/B,/C/ DD DD | D[I:staff -1] z z2 z2 | x6 | x6 | %42
 z[I:staff +1] D ED[I:staff -1] G[I:staff +1]B, | A,^F/=E/ G/F/E/D/[I:staff -1] A[I:staff +1]C | %44
[I:staff -1] B,G/A/ ^F/G/A/B/ c/B/A/c/ | B/A/G/A/ ^F/G/A/B/ c/B/A/c/ | B/c/d/e/ d/c/B/_A/ Gc- | %47
 cF EF =Bd- | dE/F/ GG GG | G/F/E/F/ GG GG | G z z2 z e | f z z2 z d | e z z2 z c | %53
 d[I:staff +1]B, A,B, G,^C | D_A, G,A, F,B, | CC EC[I:staff -1] G[I:staff +1]B, | %56
 _A,D/C/ E/D/C/B,/[I:staff -1] F[I:staff +1]=A, | G,/B,/C/D/ E/D/E/F/[I:staff -1] G[I:staff +1]E | %58
 E_A, G,A, DF- | FG,/_A,/ B,B, B,B, | B,/_A,/G,/A,/ B,B, B,B, | %61
 B,E GE[I:staff -1] B[I:staff +1]B, | CA/G/ B/A/G/F/[I:staff -1] c[I:staff +1]E | %63
[I:staff -1] DB/d/ A/B/c/d/ e/d/c/e/ | dF,/G,/ A,/[I:staff +1]B,/C/D/ E/D/C/E/ | %65
[I:staff -1] dF,/G,/ A,/[I:staff +1]B,/C/D/ E/D/C/E/ | %66
 D/[I:staff -1]C/B,/C/ A,/[I:staff +1]B,/C/D/ E/D/C/E/ |[I:staff -1] DB B2 AE | D6 |] %69
V:4
 x8 | x8 | x8 | x8 | x8 | x8 | x8 | x8 | x8 | x8 | z2 D,>D, =B,,2 z2 | x8 | %12
 z2 C,>C, F,2 F,/4C,/4D,/4E,/4F,/4G,/4A,/4B,/4 | x8 | %14
 z2 [B,,D,F,]>[B,,D,F,] [E,G,]2 [=E,G,]>[E,G,] | [F,A,C]2 z2 z4 | %16
 z4 !arpeggio![F,,C,E,]2 [F,,C,E,]2 | [B,,D,F,]2 z2 z4 | x8 | x8 | x8 |[M:3/4] x6 | x6 | x6 | x6 | %25
 x6 | x6 | x6 | x6 | x6 | x6 | x6 | x6 | x6 | x6 | x6 | x6 | x6 | x6 | x6 | x6 | x6 | x6 | x6 | %44
 x6 | x6 | x6 | x6 | x6 | x6 | x6 | x6 | x6 | x6 | x6 | x6 | x6 | x6 | x6 | x6 | x6 | x6 | x6 | %63
 x6 | x6 | x6 | x6 | x6 | x6 |] %69

